svgs/sharp-light/binoculars.svg

<svg xmlns="http://www.w3.org/2000/svg" viewBox="0 0 512 512"><!--! Font Awesome Pro 6.6.0 by @fontawesome - https://fontawesome.com License - https://fontawesome.com/license (Commercial License) Copyright 2024 Fonticons, Inc. --><path d="M112 32L96 32l0 32 16 0 64 0 16 0 0-32-16 0-64 0zm224 0l-16 0 0 32 16 0 64 0 16 0 0-32-16 0-64 0zM75.4 240.5l3.5-5.8 .8-6.7L92.2 128l99.8 0 0 16 0 128 0 176L32 448l0-135.1 43.4-72.4zM224 256l0-96 64 0 0 96-64 0zM288 96l0 32-64 0 0-32-32 0L64 96 48 224 0 304 0 448l0 32 32 0 160 0 32 0 0-32 0-160 64 0 0 160 0 32 32 0 160 0 32 0 0-32 0-144-48-80L448 96 320 96l-32 0zm32 352l0-176 0-128 0-16 99.8 0 12.5 100 .8 6.7 3.5 5.8L480 312.9 480 448l-160 0z"/></svg>

<svg xmlns="http://www.w3.org/2000/svg" viewBox="0 0 512 512"><!--! Font Awesome Pro 6.5.2 by @fontawesome - https://fontawesome.com License - https://fontawesome.com/license (Commercial License) Copyright 2024 Fonticons, Inc. --><path d="M112 32H96V64h16 64 16V32H176 112zm224 0H320V64h16 64 16V32H400 336zM75.4 240.5l3.5-5.8 .8-6.7L92.2 128H192v16V272 448H32V312.9l43.4-72.4zM224 256V160h64v96H224zM288 96v32H224V96H192 64L48 224 0 304V448v32H32 192h32V448 288h64V448v32h32H480h32V448 304l-48-80L448 96H320 288zm32 352V272 144 128h99.8l12.5 100 .8 6.7 3.5 5.8L480 312.9V448H320z"/></svg>
